Sources/FrostedUI/Resources/Icons.xcassets/trashFilled24.imageset/trash-filled-24.svg

<svg width="24" height="24" viewBox="0 0 24 24" fill="none" xmlns="http://www.w3.org/2000/svg" data-fui-icon="true">
  <path
    d="M18.9277 8C19.5188 8.00009 19.981 8.5104 19.9229 9.09863L18.7539 20.9277C18.6549 22.6499 17.2296 24 15.5 24H7.5C5.7704 24 4.34507 22.6499 4.24609 20.9277L3.07715 9.09863C3.01903 8.5104 3.48119 8.00009 4.07227 8H18.9277ZM12.4678 1C14.152 1.00003 15.5978 2.20009 15.9082 3.85547L16.123 5H21C21.4142 5 21.75 5.33579 21.75 5.75C21.75 6.16421 21.4142 6.5 21 6.5H2C1.58579 6.5 1.25 6.16421 1.25 5.75C1.25 5.33579 1.58579 5 2 5H7.87695L8.0918 3.85547C8.40218 2.20009 9.848 1.00003 11.5322 1H12.4678ZM11.5322 2.5C10.5698 2.50003 9.74377 3.18591 9.56641 4.13184L9.40332 5H14.5967L14.4336 4.13184C14.2562 3.18591 13.4302 2.50003 12.4678 2.5H11.5322Z"
    fill="currentColor"
  />
</svg>

<svg xmlns="http://www.w3.org/2000/svg" width="24" height="24" fill="none" data-fui-icon="true" viewBox="0 0 24 24"><path fill="currentColor" d="M18.928 8a1 1 0 0 1 .995 1.099l-1.17 11.829A3.26 3.26 0 0 1 15.5 24h-8a3.26 3.26 0 0 1-3.254-3.072L3.077 9.098A1 1 0 0 1 4.072 8zm-6.46-7a3.5 3.5 0 0 1 3.44 2.855L16.123 5H21a.75.75 0 0 1 0 1.5H2A.75.75 0 0 1 2 5h5.877l.215-1.145A3.5 3.5 0 0 1 11.532 1zm-.936 1.5a2 2 0 0 0-1.966 1.632L9.403 5h5.194l-.163-.868A2 2 0 0 0 12.468 2.5z"/></svg>
